X: 1
T: the Galway Belle(s) polka
O: Ireland
R: polka
%D1952
N: Distant relative of "Campbell's Farewell to Redcastle" (Scottish)
S: Fiddle Hell Online 2022-4-3 Marla Fibish workshop
Z: 2009 John Chambers <jc:trillian.mit.edu> (with a few small melody changes in 2020)
M: 2/4
L: 1/16
K: Em
|: "Em"E3F G2A2 | B2e2 B3B | "D"A2F2 D2F2 |   E2F2  D2B,2 \
|  "Em"E3F G2A2 | B2e2 B3B | "D"A2F2 D2F2 |1 "Em"E4 E2B,2 :|2 "Em"E4 E4 |]
[| "Em"B2e2 B3A | B2e2 B3B | "D"A2F2 D2F2 |   E2F2  D2A2 \
|  "Em"B2e2 B3A | B2e2 B3B | "D"A2F2 D2F2 | "Em"E4  E4 ||
|| "Em"B2e2 B3A | B2e2 B3B | "D"A2F2 D2F2 |   E2F2  D2B,2 \
|  "Em"E3F G2A2 | B2e2 B3B | "D"A2F2 D2F2 | "Em"E4 E4 |]
